X:1
T:Der Schnitter Tod
T:Louise Reichardt
T:Altes Volkslied
T:Der Schnitter Tod
T:CPDL - Creative Commons Attribution Non Commercial 3.0
C:Louise Reichardt
Z:Altes Volkslied
Z:CPDL - Creative Commons Attribution Non Commercial 3.0
%%score [ ( 1 2 ) ( 3 4 ) ]
L:1/8
Q:1/4=80
M:4/4
K:Ab
V:1 treble nm="Sopran\nAlt"
V:2 treble 
V:3 bass nm="Tenor\nBass"
V:4 bass 
V:1
"^Gemächlich" E | .A2 .A2 .G2 .G2 | .F2 .F2 E3 E | A3 A G2 A2 | B2 B2 c2 z c | c2 BA B2 EE | %6
w: 1.~Es|ist ein Schnit- ter,|der heißt Tod, der|hat Ge- walt vom|höchs- ten Gott; heut|wetzt er das Mes- ser, es|
"^cresc." c2 BA | B2 E!<(!E | c2 Bc!<)!!>(! d2 BB!>)! | B2 A"^dim."B c2 A z | %10
w: schneidt schon viel|bes- ser; bald|wird er drein schnei- den, wir|müs- sen's nur lei- den.|
!f!"^poco" e3 c A2 A2 | B2 B2 c4 | (e2 a)e c2 e2 |{e} d2 B2 !fermata!A2 z |] %14
w: 1.\-5.~Hü- te dich schöns|Blü- me- lein!|hü- * te dich schöns|Blü- me- lein!|
V:2
 E | .A2 .A2 .G2 .G2 | .F2 .F2 E3 E | E2 E2 D2 C2 | F2 E2 E2 x E | E2 EE E2 ED | C2 EA | G2 EE | %8
w: |||* Ge- walt *|||||
w: 2.~Was|heut' noch grün und|frisch da- steht, wird|mor- gen schon hin-|weg ge- mäht: die|ed- le Nar- zis- se, die|himm- li- sche|Schlüs- sel, die|
w: 3.~Viel|hun- dert- tau- send|un- ge- zählt, |was nur un\-ter die|Si- chel fällt: rot'|Ro- sen, weiß' Lil- jen, beid'|wird er aus-|til- gen, ihr|
w: 6.~Trotz,|Tod! komm her, ich|fürcht' dich nit! Trotz,|eil' da- her in|ei- nem Schnitt! Wann|Si- chel mich let- zet, so|werd' ich ver-|set- zet in~den|
 E2 EE D2 FA | G2 EE E2 E x | E3 E F2 E2 | F2 G2 A4 | A2 A2 A2 _G2 | F2 =G2 E2 x |] %14
w: ||||hü- te * *||
w: schön' Hy- a- zin- then, die|tür- ki- schen Bin- den.|6.~Freu- e dich, schön's|Blü- me- lein!|freu- e dich, schön's|Blü- me- lein!|
w: Kai- * ser- kro- nen, man|wird euch nicht scho- nen!|||||
w: himm- li- schen Gar- ten, dar-|auf will ich war- ten.|||||
V:3
 E, | .A,2 .A,2 .G,2 .G,2 | .F,2 .F,2 E,3 E, | C2 C2 B,2 A,2 | A,2 G,2 A,2 z A, | E2 DC D2 DB, | %6
"^cresc." E2 DC | B,2 G,!<(!G, | A,2 B,=A,!<)!!>(! B,2 B,B,!>)! | B,2 C"^dim."G, A,2 C z | %10
!f!"^poco" B,3 C C2 E2 | D2 B,E E4 | E2 E2 E2 C2 | D2 D2 C2 z |] %14
V:4
 E, | .A,2 .A,2 .G,2 .G,2 | .F,2 .F,2 E,3 E, | C,2 A,,2 E,2 F,2 | D,2 E,2 A,,2 x A, | %5
 A,2 A,A, G,2 G,B, | A,2 A,A, | E,2 E,E, | A,2 G,F, B,,2 D,=D, | E,2 E,E, A,2 A,, x | %10
 G,3 A, F,2 C,2 | D,2 E,2 A,4 | C2 C2 A,2 A,,2 | D,2 E,2 !fermata!A,,2 x |] %14

